src/resources/disciplines/technology.svg

<svg width="170" height="120" viewBox="0 0 170 120" fill="none" xmlns="http://www.w3.org/2000/svg">
<path d="M149.53 72.7865C136.624 96.0313 111.862 112.625 77.6816 110.672C77.0599 110.637 76.4383 110.594 75.8166 110.549C47.7123 108.432 20.061 94.654 11.6539 70.3128C6.76053 56.1486 13.8198 39.557 28.1658 31.498C43.9301 22.6446 64.7087 24.3329 82.1168 18.1856C92.0759 14.6734 100.825 8.60939 111.262 6.35919C122.218 3.99767 134.709 4.21595 144.429 9.71053C168.873 23.5154 159.953 54.0348 149.53 72.7865Z" fill="#FFF5E3"/>
<path d="M110.038 52.2188C121.472 52.2188 130.741 43.2339 130.741 32.1505C130.741 21.0671 121.472 12.0823 110.038 12.0823C98.6039 12.0823 89.335 21.0671 89.335 32.1505C89.335 43.2339 98.6039 52.2188 110.038 52.2188Z" fill="#001550"/>
<path d="M138.322 46.1715L131.067 65.4419L99.026 58.1392L94.8926 56.2775L94.9241 56.2078L107.221 29.2684L112.91 32.3596L138.322 46.1715Z" fill="white"/>
<path d="M112.916 32.3596L100.75 57.1451C97.8937 57.2672 96.0766 56.8487 94.9297 56.2078L107.226 29.2684L112.916 32.3596Z" fill="#10B981"/>
<path d="M138.322 46.1715L131.067 65.4419L99.026 58.1348L94.8926 56.2732L107.221 29.2684L138.322 46.1715Z" stroke="#001550" stroke-width="0.8" stroke-linecap="round" stroke-linejoin="round"/>
<path d="M102.925 42.1168C102.925 42.1168 109.222 53.3608 119.045 55.2312C128.867 57.1015 135.654 47.9982 135.654 47.9982L109.267 35.9084L102.925 42.1168Z" fill="#10B981"/>
<path d="M14.6768 46.5861L21.3333 39.0872L17.8026 37.6528L17.101 39.109L14.6768 46.5861Z" fill="white"/>
<path d="M37.5083 51.7828L33.123 58.7106L39.937 53.9802L40.9985 52.8684L37.7377 50.7408L37.5083 51.7828Z" fill="white"/>
<path d="M96.607 52.9861L97.2682 51.0983L96.2742 55.1791L100.772 57.1453C100.772 57.1453 108.827 55.3447 116.649 58.2266C124.47 61.1084 110.851 67.5348 110.851 67.5348L100.772 70.7916L89.5996 70.4384L91.3987 62.2507C91.3987 62.2507 92.8065 54.8041 96.607 52.9861Z" fill="#001550"/>
<path d="M129.765 105.443C127.8 110.008 125.479 114.32 120.567 116.426C116.07 118.353 106.683 119.778 99.1854 118.37C97.8568 118.133 96.5542 117.776 95.2949 117.302C90.1855 115.344 81.1722 109.149 75.3297 103.935C72.2713 101.205 70.0854 98.7465 69.775 97.2991C69.1544 94.3998 73.7645 84.1804 78.7704 75.3474C80.7513 71.7788 82.9532 68.3297 85.364 65.019C91.6968 56.5958 96.3069 53.2474 96.3069 53.2474C96.3069 53.2474 89.8887 62.0543 93.8781 64.6833C97.8676 67.3122 106.179 58.3702 114.684 58.1435C118.489 58.0476 123.055 59.6259 126.936 61.3959C129.896 62.7567 132.751 64.32 135.482 66.074C137.384 79.1753 135.005 93.275 129.765 105.443Z" fill="white"/>
<path d="M110.999 69.1914C110.478 70.0634 109.987 70.9353 109.524 71.8378C102.367 85.5059 98.0239 100.394 96.7373 115.671" stroke="#001550" stroke-width="0.8" stroke-linecap="round" stroke-linejoin="round"/>
<path d="M119.943 60.8293C117.398 61.7013 115.347 63.4016 113.646 65.442" stroke="#001550" stroke-width="0.8" stroke-linecap="round" stroke-linejoin="round"/>
<path d="M129.764 105.444C127.798 110.008 125.478 114.32 120.566 116.426C116.068 118.353 106.682 119.779 99.1842 118.37C98.0283 106.721 108.476 74.5891 114.418 67.6134C120.517 60.4545 126.899 61.3875 126.899 61.3875C129.858 62.7483 132.714 64.3116 135.445 66.0656C137.383 79.1756 135.004 93.2753 129.764 105.444Z" fill="#10B981"/>
<path d="M58.0307 10.308C53.6679 7.35644 48.626 7.05997 46.7864 9.64534L36.7881 24.957L48.536 33.2407C48.536 33.2407 62.2675 20.728 62.5598 20.3182C64.4219 17.7459 62.3934 13.2596 58.0307 10.308Z" fill="#001550"/>
<path d="M48.5541 32.9135C47.1688 34.8405 43.4132 34.6182 40.1614 32.4208C36.9095 30.2235 35.4028 26.9013 36.7881 24.9568C38.1734 23.0123 41.929 23.2521 45.1808 25.4495C48.4326 27.6468 49.9393 30.9908 48.5541 32.9135Z" fill="white" stroke="#001550" stroke-width="0.8" stroke-linecap="round" stroke-linejoin="round"/>
<path d="M39.4014 39.0869L40.6293 37.3517L33.343 32.5515L32.0342 34.1428" fill="white"/>
<path d="M39.4014 39.0869L40.6293 37.3517L33.343 32.5515L32.0342 34.1428" stroke="#001550" stroke-width="0.8" stroke-linecap="round" stroke-linejoin="round"/>
<path d="M37.6402 51.5647L32.8457 58.8979L40.2669 53.749" stroke="#001550" stroke-width="0.8" stroke-linecap="round" stroke-linejoin="round"/>
<path d="M20.5866 39.9109L14.4697 46.8256L17.4562 38.3937" stroke="#001550" stroke-width="0.8" stroke-linecap="round" stroke-linejoin="round"/>
<path d="M43.5357 26.9011C41.1924 25.3184 38.3634 25.2618 37.3649 26.6482L36.0605 27.712L37.2884 28.7322C37.7941 30.0384 38.7157 31.1546 39.9196 31.9192C40.8034 32.5326 41.8151 32.9508 42.8835 33.1443L44.2059 34.3738C44.2059 34.3738 45.8475 32.438 45.9644 32.2767C46.9404 30.9034 45.852 28.4967 43.5357 26.9011Z" fill="#001550"/>
<path d="M44.6688 33.6242C43.6703 35.0106 40.9672 34.8537 38.6284 33.2711C36.2896 31.6884 35.1967 29.2818 36.1951 27.8954C37.1936 26.509 39.9012 26.6703 42.24 28.2529C44.5788 29.8355 45.6673 32.2378 44.6688 33.6242Z" fill="white" stroke="#001550" stroke-width="0.8" stroke-linecap="round" stroke-linejoin="round"/>
<path d="M41.8059 31.1128L38.3517 35.9086L35.6846 34.108L39.0398 29.4604C39.5691 29.3637 40.1166 29.4452 40.5915 29.6915C40.8889 29.8279 41.1517 30.0259 41.3616 30.2715C41.5714 30.517 41.7231 30.8042 41.8059 31.1128Z" fill="#001550"/>
<path d="M39.0395 42.0865L40.6991 39.9502L30.6963 33.2361L29.1851 35.4683L18.4221 36.7152L17.4326 38.263L20.581 39.9066C23.9048 39.8194 27.1701 40.9704 30.0261 42.5705C32.7517 44.1051 35.1715 46.0191 36.6018 48.7963C36.8154 49.2069 37.0046 49.629 37.1685 50.0606C37.2854 50.3527 37.3933 51.2204 37.6182 51.4122L40.2854 53.749L41.4548 52.3277L39.0395 42.0865Z" fill="white" stroke="#001550" stroke-width="0.8" stroke-linecap="round" stroke-linejoin="round"/>
<path d="M31.3316 35.8256L28.498 39.684L34.9207 44.131L37.7318 40.2595L31.3316 35.8256Z" fill="#10B981" stroke="#001550" stroke-width="0.8" stroke-linecap="round" stroke-linejoin="round"/>
<path d="M114.306 27.2151C113.108 29.9076 111.655 32.4866 109.966 34.9189C104.416 42.9933 97.6919 48.103 94.9438 46.3286L76.9756 34.7489L94.3547 9.40963L95.4971 7.74854L114.594 16.8736C114.743 16.9287 114.886 16.9973 115.022 17.0786C116.888 18.2731 116.465 22.2711 114.306 27.2151Z" fill="white"/>
<path d="M114.309 27.2151L112.411 26.2691L102.602 20.5708L101.878 15.7096L95.9271 12.4048L94.3574 9.40963L95.4998 7.74854L114.597 16.8736C114.746 16.9287 114.889 16.9973 115.024 17.0786C116.891 18.2731 116.468 22.2711 114.309 27.2151Z" fill="#10B981"/>
<path d="M87.2578 41.3672C92.2412 37.9491 104.241 28.1395 105.249 12.4049" stroke="#001550" stroke-width="0.8" stroke-linecap="round" stroke-linejoin="round"/>
<path d="M115.044 17.0786C114.902 16.9942 114.752 16.9254 114.594 16.8736L95.4971 7.74854L76.9756 34.7489L94.9439 46.346C97.6919 48.1205 104.416 43.0108 109.966 34.932C115.516 26.8533 117.788 18.853 115.044 17.0786Z" stroke="#001550" stroke-width="0.8" stroke-linecap="round" stroke-linejoin="round"/>
<path d="M90.8387 24.2025C85.7204 31.6534 79.5181 36.3664 76.9814 34.7489C74.4447 33.1314 76.5316 25.7459 81.659 18.2949C86.7863 10.844 93.0111 5.97406 95.5613 7.60464C98.1115 9.23521 95.9616 16.7515 90.8387 24.2025Z" fill="#001550"/>
<path d="M92.8625 16.3112C91.9689 18.5019 90.8302 20.5912 89.4667 22.5413C85.5582 28.2091 80.8177 31.8321 78.8837 30.5809C78.6318 30.4239 66.3486 22.2318 66.3486 22.2318L78.9826 3.50635L79.0906 3.55431L92.7366 9.83245C92.8424 9.86888 92.9436 9.91716 93.0379 9.97632C94.2343 10.7698 94.0814 13.2113 92.8625 16.3112Z" fill="white"/>
<path d="M92.8514 16.3114L87.2563 13.4077L85.2099 9.98089L79.7497 7.28216L79.0615 3.56323L92.7075 9.84137C92.8134 9.8778 92.9145 9.92609 93.0089 9.98525C94.2232 10.77 94.0703 13.2115 92.8514 16.3114Z" fill="#10B981"/>
<path d="M73.083 26.5873C75.8896 24.8434 85.3932 18.526 85.4921 6.67163" stroke="#001550" stroke-width="0.8" stroke-linecap="round" stroke-linejoin="round"/>
<path d="M82.661 29.8353L78.5771 27.1453C78.5771 27.1453 80.4662 25.4842 82.1753 23.8798L86.2682 26.4957L82.661 29.8353Z" fill="#10B981"/>
<path d="M92.8625 16.3112C91.9689 18.5019 90.8302 20.5912 89.4667 22.5413C85.5582 28.2091 80.8177 31.8321 78.8837 30.5809C78.6318 30.4239 66.3486 22.2318 66.3486 22.2318L78.9826 3.50635L79.0906 3.55431L92.7366 9.83245C92.8424 9.86888 92.9436 9.91716 93.0379 9.97632C94.2343 10.7698 94.0814 13.2113 92.8625 16.3112Z" stroke="#001550" stroke-width="0.8" stroke-linecap="round" stroke-linejoin="round"/>
<path d="M75.9783 15.0026C79.5842 9.75373 81.0591 4.56389 79.2728 3.41081C77.4864 2.25772 73.1152 5.57804 69.5094 10.8269C65.9036 16.0759 64.4286 21.2657 66.2149 22.4188C68.0013 23.5719 72.3725 20.2515 75.9783 15.0026Z" fill="#001550"/>
<path d="M73.7588 14.0529C76.6251 9.86002 77.7921 5.71808 76.3654 4.80164C74.9387 3.88521 71.4585 6.54132 68.5922 10.7342C65.7259 14.9271 64.5589 19.0691 65.9856 19.9855C67.4123 20.902 70.8925 18.2458 73.7588 14.0529Z" fill="white" stroke="#001550" stroke-width="0.8" stroke-linecap="round" stroke-linejoin="round"/>
<path d="M121.541 50.2177C131.321 50.2177 139.249 42.5328 139.249 33.053C139.249 23.5733 131.321 15.8884 121.541 15.8884C111.762 15.8884 103.834 23.5733 103.834 33.053C103.834 42.5328 111.762 50.2177 121.541 50.2177Z" fill="#001550"/>
<path d="M124.931 52.1055C134.711 52.1055 142.638 44.4206 142.638 34.9409C142.638 25.4611 134.711 17.7762 124.931 17.7762C115.151 17.7762 107.224 25.4611 107.224 34.9409C107.224 44.4206 115.151 52.1055 124.931 52.1055Z" fill="white" stroke="#001550" stroke-width="0.8" stroke-linecap="round" stroke-linejoin="round"/>
<path d="M135.882 35.8205C137.134 30.6272 133.807 25.4328 128.449 24.2185C123.091 23.0042 117.733 26.2299 116.48 31.4233C115.227 36.6166 118.555 41.811 123.913 43.0253C129.27 44.2395 134.629 41.0139 135.882 35.8205Z" fill="#10B981"/>
<path d="M124.928 44.236C130.224 44.236 134.517 40.0745 134.517 34.9409C134.517 29.8073 130.224 25.6458 124.928 25.6458C119.632 25.6458 115.339 29.8073 115.339 34.9409C115.339 40.0745 119.632 44.236 124.928 44.236Z" fill="white" stroke="#001550" stroke-width="0.8" stroke-linecap="round" stroke-linejoin="round"/>
<path d="M129.29 34.9407C129.291 35.7773 129.036 36.5954 128.557 37.2914C128.078 37.9875 127.397 38.5302 126.6 38.8509C125.803 39.1717 124.925 39.2561 124.079 39.0934C123.232 38.9307 122.454 38.5283 121.844 37.937C121.233 37.3457 120.817 36.5922 120.649 35.7717C120.48 34.9513 120.566 34.1007 120.896 33.3277C121.226 32.5547 121.785 31.894 122.503 31.4291C123.22 30.9642 124.064 30.7161 124.927 30.7161C126.084 30.7161 127.193 31.161 128.011 31.9532C128.829 32.7453 129.289 33.8199 129.29 34.9407Z" fill="#001550"/>
<path d="M126.738 34.9406C126.738 35.8473 126.438 36.7301 125.882 37.4591C125.326 38.1881 124.543 38.725 123.649 38.9909C122.754 38.727 121.97 38.1913 121.413 37.4628C120.856 36.7343 120.556 35.8516 120.556 34.945C120.556 34.0383 120.856 33.1556 121.413 32.4271C121.97 31.6987 122.754 31.163 123.649 30.899C124.542 31.1626 125.325 31.6977 125.882 32.4254C126.438 33.1531 126.738 34.0349 126.738 34.9406Z" fill="white" stroke="#001550" stroke-width="0.8" stroke-linecap="round" stroke-linejoin="round"/>
<path d="M135.478 66.0698C135.478 66.0698 123.168 57.9257 114.663 58.135C106.158 58.3442 97.8459 67.2906 93.8565 64.6747C89.867 62.0588 96.2852 53.2389 96.2852 53.2389C96.2852 53.2389 91.6751 56.6047 85.3423 65.0104C79.0096 73.4161 68.8673 93.0833 69.7758 97.2949C70.6844 101.506 87.5102 114.298 95.2957 117.298C103.081 120.297 115.252 118.702 120.568 116.426C125.48 114.316 127.796 110.008 129.766 105.443C135.006 93.2751 137.385 79.1711 135.478 66.0698Z" stroke="#001550" stroke-width="0.8" stroke-linecap="round" stroke-linejoin="round"/>
<path d="M72.7708 12.4047C72.0209 13.5257 70.9162 14.3808 69.6225 14.8418L58.7606 8.65087C58.0694 8.27881 57.5296 7.68951 57.2304 6.98015C56.9311 6.27079 56.8902 5.48375 57.1144 4.74883C57.8115 2.66919 60.7665 1.33945 62.6061 2.37272L73.4005 9.21328L73.5085 9.27868C73.7109 10.0111 73.7648 10.8351 72.7708 12.4047Z" fill="#001550"/>
<path d="M64.4998 6.27063C64.5808 8.42874 65.4623 11.4632 63.7037 12.5401C62.8267 13.0763 59.9752 12.5401 58.6708 12.3395C55.3695 11.825 52.527 9.92417 52.4101 6.67174C52.3818 5.90085 52.5108 5.13213 52.7895 4.40962C53.0683 3.68712 53.4913 3.02502 54.0345 2.46126C54.5776 1.8975 55.2302 1.44316 55.9547 1.12427C56.6793 0.805372 57.4617 0.628183 58.2571 0.60286C60.7443 0.520024 66.0246 0.310752 67.0275 2.34679C67.3739 3.07052 64.4683 5.44226 64.4998 6.27063Z" fill="#001550"/>
<path d="M68.9225 7.28758C69.2683 4.06639 66.8547 1.1834 63.5317 0.848252C60.2086 0.513102 57.2345 2.8527 56.8887 6.07389C56.543 9.29508 58.9566 12.1781 62.2796 12.5132C65.6026 12.8484 68.5768 10.5088 68.9225 7.28758Z" fill="white" stroke="#001550" stroke-width="0.8" stroke-linecap="round" stroke-linejoin="round"/>
<path d="M64.7423 6.61474C64.7509 6.96737 64.6518 7.3146 64.4573 7.61272C64.2628 7.91083 63.9816 8.1465 63.6493 8.29006C63.3169 8.43362 62.9481 8.47865 62.5894 8.41947C62.2306 8.3603 61.898 8.19956 61.6333 7.95751C61.3686 7.71546 61.1837 7.40291 61.1019 7.05922C61.0201 6.71552 61.045 6.35604 61.1735 6.02603C61.302 5.69603 61.5283 5.41026 61.824 5.20469C62.1197 4.99912 62.4716 4.88296 62.8353 4.87081C63.0789 4.86267 63.3218 4.90145 63.5499 4.98492C63.7781 5.06838 63.9868 5.19486 64.1642 5.35704C64.3415 5.51922 64.4839 5.71389 64.5832 5.92977C64.6824 6.14565 64.7365 6.37847 64.7423 6.61474Z" fill="#001550"/>
</svg>

<svg width="170" height="120" fill="none" xmlns="http://www.w3.org/2000/svg"><path d="M149.53 72.787c-12.906 23.244-37.668 39.838-71.848 37.885a116.7 116.7 0 0 1-1.865-.123c-28.105-2.117-55.756-15.895-64.163-40.236C6.76 56.149 13.82 39.557 28.166 31.498c15.764-8.853 36.543-7.165 53.95-13.312 9.96-3.513 18.709-9.577 29.146-11.827 10.956-2.361 23.447-2.143 33.167 3.352 24.444 13.804 15.524 44.324 5.101 63.076Z" fill="#FFF5E3"/><path d="M110.038 52.219c11.434 0 20.703-8.985 20.703-20.069 0-11.083-9.269-20.068-20.703-20.068s-20.703 8.985-20.703 20.069c0 11.083 9.269 20.068 20.703 20.068Z" fill="#001550"/><path d="m138.322 46.172-7.255 19.27-32.041-7.303-4.133-1.861.031-.07 12.297-26.94 5.689 3.092 25.412 13.812Z" fill="#fff"/><path d="M112.916 32.36 100.75 57.145c-2.856.122-4.673-.296-5.82-.937l12.296-26.94 5.69 3.092Z" fill="#10B981"/><path d="m138.322 46.172-7.255 19.27-32.041-7.307-4.133-1.862 12.328-27.005 31.101 16.904Z" stroke="#001550" stroke-width=".8" stroke-linecap="round" stroke-linejoin="round"/><path d="M102.925 42.117s6.297 11.244 16.12 13.114c9.822 1.87 16.609-7.233 16.609-7.233l-26.387-12.09-6.342 6.209Z" fill="#10B981"/><path d="m14.677 46.586 6.656-7.499-3.53-1.434-.702 1.456-2.424 7.477ZM37.508 51.783l-4.385 6.928 6.814-4.73 1.062-1.113-3.261-2.127-.23 1.042Z" fill="#fff"/><path d="m96.607 52.986.661-1.888-.994 4.081 4.498 1.966s8.055-1.8 15.877 1.082c7.821 2.881-5.798 9.308-5.798 9.308l-10.079 3.257-11.172-.354 1.799-8.187s1.407-7.447 5.208-9.265Z" fill="#001550"/><path d="M129.765 105.443c-1.965 4.565-4.286 8.877-9.198 10.983-4.497 1.927-13.884 3.352-21.382 1.944a22.022 22.022 0 0 1-3.89-1.068c-5.11-1.958-14.123-8.153-19.965-13.367-3.059-2.73-5.245-5.189-5.555-6.636-.62-2.9 3.99-13.119 8.995-21.952a99.969 99.969 0 0 1 6.594-10.328c6.333-8.423 10.943-11.772 10.943-11.772s-6.418 8.807-2.429 11.436c3.99 2.63 12.301-6.313 20.806-6.54 3.805-.095 8.371 1.483 12.252 3.253a69.644 69.644 0 0 1 8.546 4.678c1.902 13.101-.477 27.201-5.717 39.369Z" fill="#fff"/><path d="M110.999 69.191a46.717 46.717 0 0 0-1.475 2.647c-7.157 13.668-11.5 28.556-12.787 43.833M119.943 60.83c-2.545.871-4.596 2.572-6.297 4.612" stroke="#001550" stroke-width=".8" stroke-linecap="round" stroke-linejoin="round"/><path d="M129.764 105.444c-1.966 4.564-4.286 8.876-9.198 10.982-4.498 1.927-13.884 3.353-21.382 1.944-1.156-11.649 9.292-43.78 15.234-50.757 6.099-7.158 12.481-6.225 12.481-6.225a69.717 69.717 0 0 1 8.546 4.678c1.938 13.11-.441 27.21-5.681 39.378Z" fill="#10B981"/><path d="M58.03 10.308c-4.362-2.952-9.404-3.248-11.244-.663l-9.998 15.312 11.748 8.284S62.267 20.728 62.56 20.318c1.862-2.572-.167-7.058-4.53-10.01Z" fill="#001550"/><path d="M48.554 32.913c-1.385 1.928-5.14 1.705-8.393-.492-3.252-2.197-4.758-5.52-3.373-7.464 1.385-1.945 5.141-1.705 8.393.492 3.252 2.198 4.758 5.542 3.373 7.464Z" fill="#fff" stroke="#001550" stroke-width=".8" stroke-linecap="round" stroke-linejoin="round"/><path d="m39.401 39.087 1.228-1.735-7.286-4.8-1.309 1.59" fill="#fff"/><path d="m39.401 39.087 1.228-1.735-7.286-4.8-1.309 1.59M37.64 51.565l-4.794 7.333 7.42-5.149M20.587 39.91l-6.117 6.916 2.986-8.432" stroke="#001550" stroke-width=".8" stroke-linecap="round" stroke-linejoin="round"/><path d="M43.536 26.901c-2.344-1.583-5.173-1.64-6.171-.253l-1.305 1.064 1.228 1.02a6.612 6.612 0 0 0 2.632 3.187 7.562 7.562 0 0 0 2.963 1.225l1.323 1.23s1.641-1.936 1.758-2.097c.976-1.374-.112-3.78-2.428-5.376Z" fill="#001550"/><path d="M44.669 33.624c-.999 1.387-3.702 1.23-6.04-.353-2.34-1.583-3.432-3.99-2.434-5.376.999-1.386 3.706-1.225 6.045.358 2.339 1.582 3.427 3.985 2.429 5.371Z" fill="#fff" stroke="#001550" stroke-width=".8" stroke-linecap="round" stroke-linejoin="round"/><path d="m41.806 31.113-3.454 4.796-2.667-1.801 3.355-4.648a2.428 2.428 0 0 1 1.552.232c.297.136.56.334.77.58.21.245.361.532.444.84Z" fill="#001550"/><path d="m39.04 42.087 1.66-2.137-10.004-6.714-1.51 2.232-10.764 1.247-.99 1.548 3.149 1.644c3.324-.088 6.59 1.063 9.445 2.664 2.726 1.534 5.146 3.448 6.576 6.225.213.41.403.833.567 1.265.116.292.224 1.16.45 1.351l2.666 2.337 1.17-1.421-2.416-10.242Z" fill="#fff" stroke="#001550" stroke-width=".8" stroke-linecap="round" stroke-linejoin="round"/><path d="m31.332 35.826-2.834 3.858 6.423 4.447 2.81-3.871-6.4-4.434Z" fill="#10B981" stroke="#001550" stroke-width=".8" stroke-linecap="round" stroke-linejoin="round"/><path d="M114.306 27.215a47.02 47.02 0 0 1-4.34 7.704c-5.55 8.074-12.274 13.184-15.022 11.41l-17.968-11.58 17.379-25.34 1.142-1.66 19.097 9.125c.149.055.292.123.428.205 1.866 1.194 1.443 5.192-.716 10.136Z" fill="#fff"/><path d="m114.309 27.215-1.898-.946-9.809-5.698-.724-4.861-5.95-3.305-1.57-2.995L95.5 7.749l19.097 9.125c.149.055.292.123.427.205 1.867 1.194 1.444 5.192-.715 10.136Z" fill="#10B981"/><path d="M87.258 41.367c4.983-3.418 16.983-13.227 17.991-28.962" stroke="#001550" stroke-width=".8" stroke-linecap="round" stroke-linejoin="round"/><path d="M115.044 17.079a2.252 2.252 0 0 0-.45-.205L95.497 7.749l-18.521 27 17.968 11.597c2.748 1.775 9.472-3.335 15.022-11.414 5.55-8.079 7.822-16.079 5.078-17.853Z" stroke="#001550" stroke-width=".8" stroke-linecap="round" stroke-linejoin="round"/><path d="M90.839 24.203c-5.119 7.45-11.32 12.163-13.858 10.546-2.536-1.618-.45-9.003 4.678-16.454 5.127-7.451 11.352-12.32 13.902-10.69 2.55 1.63.4 9.146-4.722 16.598Z" fill="#001550"/><path d="M92.862 16.311a31.898 31.898 0 0 1-3.395 6.23c-3.909 5.668-8.65 9.291-10.583 8.04a8425.75 8425.75 0 0 1-12.535-8.35L78.983 3.507l.108.048 13.646 6.278c.105.037.207.085.3.144 1.197.794 1.044 3.235-.175 6.335Z" fill="#fff"/><path d="m92.851 16.311-5.595-2.903L85.21 9.98l-5.46-2.699-.689-3.719 13.646 6.278c.106.037.208.085.302.144 1.214.785 1.061 3.226-.158 6.326Z" fill="#10B981"/><path d="M73.083 26.587c2.807-1.744 12.31-8.061 12.41-19.915" stroke="#001550" stroke-width=".8" stroke-linecap="round" stroke-linejoin="round"/><path d="m82.661 29.835-4.084-2.69s1.89-1.66 3.598-3.265l4.093 2.616-3.607 3.34Z" fill="#10B981"/><path d="M92.862 16.311a31.898 31.898 0 0 1-3.395 6.23c-3.909 5.668-8.65 9.291-10.583 8.04a8425.75 8425.75 0 0 1-12.535-8.35L78.983 3.507l.108.048 13.646 6.278c.105.037.207.085.3.144 1.197.794 1.044 3.235-.175 6.335Z" stroke="#001550" stroke-width=".8" stroke-linecap="round" stroke-linejoin="round"/><path d="M75.978 15.003c3.606-5.25 5.081-10.44 3.295-11.592-1.787-1.153-6.158 2.167-9.764 7.416-3.605 5.249-5.08 10.439-3.294 11.592 1.786 1.153 6.157-2.168 9.763-7.416Z" fill="#001550"/><path d="M73.759 14.053c2.866-4.193 4.033-8.335 2.606-9.251-1.426-.917-4.906 1.74-7.773 5.932-2.866 4.193-4.033 8.335-2.606 9.251 1.426.917 4.906-1.74 7.773-5.932Z" fill="#fff" stroke="#001550" stroke-width=".8" stroke-linecap="round" stroke-linejoin="round"/><path d="M121.541 50.218c9.78 0 17.708-7.685 17.708-17.165s-7.928-17.165-17.708-17.165c-9.779 0-17.707 7.685-17.707 17.165s7.928 17.165 17.707 17.165Z" fill="#001550"/><path d="M124.931 52.105c9.78 0 17.707-7.684 17.707-17.164s-7.927-17.165-17.707-17.165c-9.78 0-17.707 7.685-17.707 17.165s7.927 17.164 17.707 17.164Z" fill="#fff" stroke="#001550" stroke-width=".8" stroke-linecap="round" stroke-linejoin="round"/><path d="M135.882 35.82c1.252-5.193-2.075-10.387-7.433-11.602-5.358-1.214-10.716 2.012-11.969 7.205-1.253 5.194 2.075 10.388 7.433 11.602 5.357 1.215 10.716-2.011 11.969-7.204Z" fill="#10B981"/><path d="M124.928 44.236c5.296 0 9.589-4.161 9.589-9.295s-4.293-9.295-9.589-9.295-9.589 4.161-9.589 9.295c0 5.133 4.293 9.295 9.589 9.295Z" fill="#fff" stroke="#001550" stroke-width=".8" stroke-linecap="round" stroke-linejoin="round"/><path d="M129.29 34.94a4.135 4.135 0 0 1-.733 2.351 4.337 4.337 0 0 1-1.957 1.56 4.49 4.49 0 0 1-2.521.242 4.403 4.403 0 0 1-2.235-1.156 4.183 4.183 0 0 1-1.195-2.165 4.107 4.107 0 0 1 .247-2.444 4.257 4.257 0 0 1 1.607-1.899 4.46 4.46 0 0 1 2.424-.713c1.157 0 2.266.445 3.084 1.237a4.163 4.163 0 0 1 1.279 2.988Z" fill="#001550"/><path d="M126.738 34.94c0 .907-.3 1.79-.856 2.52a4.372 4.372 0 0 1-2.233 1.53 4.365 4.365 0 0 1-2.236-1.527 4.142 4.142 0 0 1-.857-2.518c0-.907.3-1.79.857-2.518a4.366 4.366 0 0 1 2.236-1.528 4.365 4.365 0 0 1 2.233 1.526 4.14 4.14 0 0 1 .856 2.516Z" fill="#fff" stroke="#001550" stroke-width=".8" stroke-linecap="round" stroke-linejoin="round"/><path d="M135.478 66.07s-12.31-8.144-20.815-7.935c-8.505.21-16.817 9.156-20.806 6.54-3.99-2.616 2.428-11.436 2.428-11.436s-4.61 3.366-10.943 11.771c-6.332 8.406-16.475 28.073-15.566 32.285.908 4.211 17.734 17.003 25.52 20.003 7.785 2.999 19.956 1.404 25.272-.872 4.912-2.11 7.228-6.418 9.198-10.983 5.24-12.168 7.619-26.272 5.712-39.373Z" stroke="#001550" stroke-width=".8" stroke-linecap="round" stroke-linejoin="round"/><path d="M72.77 12.405a6.342 6.342 0 0 1-3.147 2.437L58.76 8.65a3.407 3.407 0 0 1-1.53-1.67c-.3-.71-.34-1.497-.117-2.232.698-2.08 3.653-3.41 5.492-2.376L73.4 9.213l.108.066c.203.732.257 1.556-.737 3.126Z" fill="#001550"/><path d="M64.5 6.27c.08 2.159.962 5.193-.796 6.27-.877.536-3.729 0-5.033-.2-3.301-.515-6.144-2.416-6.26-5.668-.03-.771.1-1.54.378-2.262a5.839 5.839 0 0 1 1.245-1.949 6.048 6.048 0 0 1 1.92-1.337 6.208 6.208 0 0 1 2.303-.521c2.487-.083 7.768-.292 8.77 1.744.347.724-2.559 3.095-2.527 3.924Z" fill="#001550"/><path d="M68.922 7.288c.346-3.222-2.067-6.105-5.39-6.44-3.323-.335-6.297 2.005-6.643 5.226-.346 3.221 2.068 6.104 5.39 6.44 3.324.334 6.298-2.005 6.643-5.226Z" fill="#fff" stroke="#001550" stroke-width=".8" stroke-linecap="round" stroke-linejoin="round"/><path d="M64.742 6.615c.009.352-.09.7-.285.998a1.83 1.83 0 0 1-.808.677 1.897 1.897 0 0 1-1.06.13 1.867 1.867 0 0 1-.956-.462 1.775 1.775 0 0 1-.531-.899 1.736 1.736 0 0 1 .072-1.033c.128-.33.354-.616.65-.821a1.883 1.883 0 0 1 1.726-.22c.228.083.437.21.614.372s.32.357.42.573c.098.216.153.448.158.685Z" fill="#001550"/></svg>
